assets/misc-grey/MiscGrey31.svg

<svg width="38" height="40" viewBox="0 0 38 40" fill="none" xmlns="http://www.w3.org/2000/svg">
<path fill-rule="evenodd" clip-rule="evenodd" d="M34.95 34.804C34.94 36.514 33.81 36.797 33.15 36.813C33.15 36.813 6.19002 36.818 5.02002 36.819C4.49002 36.819 4.07002 36.671 3.77002 36.378C3.34002 35.949 3.12002 35.148 3.12002 34.07C3.12002 33.09 3.12002 22.998 3.12002 15.938H34.96C34.96 22.72 34.97 32.406 34.95 34.804ZM3.12002 9.06203C3.12002 7.49303 3.72002 6.82103 5.13002 6.81303C5.26002 6.81303 6.34002 6.81303 8.01002 6.81303V9.01703C8.01002 9.84503 8.68002 10.517 9.51002 10.517C10.33 10.517 11.01 9.84503 11.01 9.01703V6.81203C11.65 6.81203 12.33 6.81203 13.04 6.81203C17.43 6.81203 22.8 6.81203 26.84 6.81203V9.01703C26.84 9.84503 27.51 10.517 28.34 10.517C29.17 10.517 29.84 9.84503 29.84 9.01703V6.81203C31.65 6.81203 32.81 6.81303 32.85 6.81303C33.58 6.83703 34.1 7.02303 34.43 7.38503C34.9 7.88903 34.97 8.70703 34.96 8.96403C34.96 8.99703 34.96 9.03103 34.96 9.06503C34.96 9.12203 34.96 10.652 34.96 12.938H3.12002C3.12002 10.614 3.12002 9.06303 3.12002 9.06303V9.06203ZM37.96 9.10003C37.97 8.68603 37.97 6.82303 36.67 5.38403C36.05 4.70303 34.91 3.87903 32.9 3.81303C32.69 3.81303 31.54 3.81303 29.84 3.81303V1.51703C29.84 0.688029 29.17 0.0170288 28.34 0.0170288C27.51 0.0170288 26.84 0.688029 26.84 1.51703V3.81303C22.13 3.81303 15.67 3.81303 11.01 3.81303V1.51703C11.01 0.688029 10.33 0.0170288 9.51002 0.0170288C8.68002 0.0170288 8.01002 0.688029 8.01002 1.51703V3.81303C6.33002 3.81303 5.24002 3.81303 5.12002 3.81303C2.70002 3.82703 0.110024 5.21403 0.120024 9.06503C0.120024 9.31303 0.130024 32.545 0.120024 34.063C0.120024 35.989 0.630024 37.482 1.65002 38.5C2.52002 39.363 3.68002 39.819 5.01002 39.819C5.02002 39.819 5.02002 39.819 5.02002 39.819C6.20002 39.818 33.15 39.813 33.14 39.813C33.15 39.813 33.15 39.813 33.15 39.813C35.07 39.813 37.93 38.485 37.95 34.823C37.98 31.122 37.96 10.133 37.96 9.10003Z" fill="#1A1919"/>
</svg>

<svg xmlns="http://www.w3.org/2000/svg" viewBox="0 0 38 40"><path fill-rule="evenodd" d="M34.95 34.804c-.01 1.71-1.14 1.993-1.8 2.009l-28.13.006c-.53 0-.95-.148-1.25-.441-.43-.429-.65-1.23-.65-2.308V15.938h31.84c0 6.782.01 16.468-.01 18.866zM3.12 9.062c0-1.569.6-2.241 2.01-2.249h2.88v2.204a1.5 1.5 0 103 0V6.812h15.83v2.205a1.5 1.5 0 103 0V6.812l3.01.001c.73.024 1.25.21 1.58.572.47.504.54 1.322.53 1.579v3.974H3.12V9.062zm34.84.038c.01-.414.01-2.277-1.29-3.716-.62-.681-1.76-1.505-3.77-1.571h-3.06V1.517c0-.829-.67-1.5-1.5-1.5s-1.5.671-1.5 1.5v2.296H11.01V1.517c0-.829-.68-1.5-1.5-1.5-.83 0-1.5.671-1.5 1.5v2.296H5.12C2.7 3.827.11 5.214.12 9.065c0 .248.01 23.48 0 24.998 0 1.926.51 3.419 1.53 4.437.87.863 2.03 1.319 3.36 1.319h.01l28.12-.006h.01c1.92 0 4.78-1.328 4.8-4.99.03-3.701.01-24.69.01-25.723z" clip-rule="evenodd"/></svg>
